X: 07028
T: The DUCKY POO JIG
C: Bob McQuillen 11 Feb 89
B: Bob's Note Book 7 #28
%R: jig
Z: 2020 John Chambers <jc:trillian.mit.edu>
M: 6/8
L: 1/8
K: D
FG \
| AFA def | edB BdB | Adf edB | AFD EFG |\
| AFA def | edB BAB | dBd AFD | FEE E :|
|: FG \
| ABd ede | fdB AFA | Bdf edB | AdB AFE |\
| DFA AFA | BdB Bdf | edB AFE | FDD D :|
%%begintext align
%% You and I both
%% know that's a damn funny name for a
%% tune, but April got into my work book one
%% time when I wasn't looking, and so it's all
%% her fault! (If you ask, maybe I'll show you
%% what she did!)
%%endtext

% %sep 1 1 500
% %sep 1 1 500
% %text The pages for tunes 29-36 are missing from my copy of the book.
% %sep 1 1 500
% %newpage	% Delete eventually

%%sep 1 1 500

%%sep 1 1 500

